assets/actigraph/original.svg

<svg viewBox="0 0 24 24" xmlns="http://www.w3.org/2000/svg" fill="#3A4259"><path d="m10.18899 0-9.32929 24h4.15078l6.98952-19.02498h.0304l6.9283 19.02498h4.1816l-8.95294-23.08436c-.21364-.54938-.74284-.91564-1.33292-.91564zm1.81101 13.71434a2.47223 2.47223 0 0 0 -2.4723 2.47211 2.47223 2.47223 0 0 0 2.4723 2.47231 2.47223 2.47223 0 0 0 2.47211-2.4723 2.47223 2.47223 0 0 0 -2.4721-2.47212z"/></svg>

<svg xmlns="http://www.w3.org/2000/svg" fill="#3a4259" viewBox="0 0 24 24"><path d="M10.189 0 .859 24H5.01L12 4.975h.03L18.96 24h4.181L14.187.916A1.43 1.43 0 0 0 12.854 0zM12 13.714a2.47 2.47 0 0 0-2.472 2.472A2.47 2.47 0 0 0 12 18.66a2.47 2.47 0 0 0 2.472-2.473A2.47 2.47 0 0 0 12 13.714"/></svg>
